site/static/img/page-collecte/etape-10.svg

<svg height="158" viewBox="0 0 159 158" width="159" xmlns="http://www.w3.org/2000/svg" xmlns:xlink="http://www.w3.org/1999/xlink"><mask id="a" fill="#fff"><path d="m.07501456 76.5319369c0 42.0943111 34.12345634 76.2185101 76.21776704 76.2185101 42.0935684 0 76.2170244-34.124199 76.2170244-76.2185101 0-42.093568-34.123456-76.21702428-76.2170244-76.21702428-42.0943107 0-76.21776704 34.12345628-76.21776704 76.21702428z" fill="#fff" fill-rule="evenodd"/></mask><g fill="none" fill-rule="evenodd" transform="translate(3 2)"><path d="m154 76.4996273c0 42.2503907-34.249982 76.5003727-76.4996273 76.5003727-42.250391 0-76.5003727-34.249982-76.5003727-76.5003727 0-42.2496456 34.2499817-76.4996273 76.5003727-76.4996273 42.2496453 0 76.4996273 34.2499817 76.4996273 76.4996273" fill="#fff"/><path d="m159.686249 112.683757h-162.6568257l21.1466796 51.630816 61.4220728 4.282514 58.2328403-12.731679 19.808301-23.406029z" fill="#9e223e" mask="url(#a)" transform="translate(1)"/><path d="m92.9234678 96.7352576c0 1.7979365-1.4158098 3.2547951-3.1629951 3.2547951h-60.1581073c-1.7471854 0-3.1629952-1.4568586-3.1629952-3.2547951v-47.2837171c0-1.7986829 1.4158098-3.2555415 3.1629952-3.2555415h60.1581073c1.7471853 0 3.1629951 1.4568586 3.1629951 3.2555415z" fill="#e8364b"/><path d="m122.682416 81.5802717-6.927542-15.1544634c-1.116527-2.0285561-2.508454-3.2555415-4.254893-3.2555415h-15.4134434c-1.7471854 0-3.1629952 1.4576049-3.1629952 3.2555415v30.3096732c0 1.7979365 1.4158098 3.2547951 3.1629952 3.2547951h13.9446434 4.743747 9.488985c1.747186 0 3.162249-1.4568586 3.162249-3.2547951v-10.0793415c0-4.1862293-2.996561-5.0758683-4.743746-5.0758683" fill="#ffa2ab"/><path d="m117.40914 81.5802717-4.59821-10.0576976c-.765746-1.3926731-1.722556-2.2345463-2.92118-2.2345463h-10.5816295c-1.1986244 0-2.1711073 1.0000976-2.1711073 2.2345463v10.0576976z" fill="#fff"/><path d="m129.911852 101.371456c0 .261966-.204497.472434-.458253.472434h-104.0616444c-.2537561 0-.4582536-.210468-.4582536-.472434v-4.1645853c0-.2604731.2044975-.4716878.4582536-.4716878h104.0616444c.253756 0 .458253.2112147.458253.4716878z" fill="#ffa2ab"/><path d="m50.9140712 103.863416c0 5.393809-4.2481756 9.765878-9.4889853 9.765878-5.2400635 0-9.4889854-4.372069-9.4889854-9.765878 0-5.3938101 4.2489219-9.7666248 9.4889854-9.7666248 5.2408097 0 9.4889853 4.3728147 9.4889853 9.7666248" fill="#9e223e"/><path d="m45.7173702 103.863416c0 2.43979-1.9218292 4.418341-4.2922097 4.418341s-4.2922098-1.978551-4.2922098-4.418341c0-2.440537 1.9218293-4.4183419 4.2922098-4.4183419s4.2922097 1.9778049 4.2922097 4.4183419" fill="#fff"/><path d="m120.86903 103.863416c0 5.393809-4.248922 9.765878-9.488986 9.765878-5.240063 0-9.488985-4.372069-9.488985-9.765878 0-5.3938101 4.248922-9.7666248 9.488985-9.7666248 5.240064 0 9.488986 4.3728147 9.488986 9.7666248" fill="#9e223e"/><path d="m115.672329 103.863416c0 2.43979-1.921829 4.418341-4.29221 4.418341-2.371127 0-4.292956-1.978551-4.292956-4.418341 0-2.440537 1.921829-4.4183419 4.292956-4.4183419 2.370381 0 4.29221 1.9778049 4.29221 4.4183419" fill="#fff"/><path d="m59.9372649 86.2310985-.2559951.1216537-.2559952-.1216537c-2.2964926-1.0971219-4.2317561-2.6510048-5.7602634-4.6153756.0029854-.0835902-.0268683-.1731512-.1022488-.2701756-1.2135512-1.5852293-2.1621512-3.4354097-2.8189317-5.5005366-1.1142878-3.5003414-1.0052643-6.3909219-1.0000975-6.5125756l.0194048-.461239.5015415-.0514976c2.6823512-.2746536 4.9870537-1.2754975 6.4483903-2.0658731 1.5635853-.8463513 2.542039-1.6546391 2.5845804-1.6897171l.3843659-.3246585.3858585.3268975c.1029952.0850829 1.0508488.859039 2.5815952 1.6874781 1.4605902.7903756 3.7645463 1.7912195 6.4483902 2.0658731l.5015415.0514976.0201512.461239c.004478.1216537.1134439 3.0129805-1.0000976 6.5125756-.6567805 2.0651269-1.6061268 3.9160537-2.8204244 5.5005366-.0753805.0985171-.1067268.1903171-.1067268.2768927-1.5270146 1.9613854-3.4615317 3.5122829-5.755039 4.6086585m12.6572049-9.7203512c0-3.1883707-.2836098-6.0856683-.850083-8.631439-1.6434439-7.3843024-5.667717-11.8123463-12.063117-11.8123463-6.3222586 0-10.3286196 4.3280341-12.0063952 11.5623219-.6045366 2.6054781-.9075512 5.5878585-.9075512 8.8814634 0 1.4479025.0791122 2.8629659.2283805 4.2347415.0208976-.0044781.0395561-.0111951.0597073-.0164195-.0007463.0141805-.0037317.0283609-.0037317.0432878 0 1.6120975 5.1370683 1.9151122 6.3565903 1.1844439 1.5561219 1.9748195 3.5175073 3.5406439 5.8386292 4.648961l.4343708.2067365.435117-.2067365c2.3114195-1.1045854 4.2653415-2.6614537 5.8184781-4.6243318 1.1583219.7702244 6.0714878.607522 6.3909219-.8881463.0223903-.1059805.0373171-.2127073.0373171-.3209268v-.0007464c.1522537-1.3799853.2313659-2.8040048.2313659-4.2608634" fill="#fff"/><path d="m.32174781 76.7961483c0-42.0645512 34.09959509-76.16563903 76.16489269-76.16563903 42.0645515 0 76.1656395 34.10108783 76.1656395 76.16563903 0 42.0645517-34.101088 76.1648927-76.1656395 76.1648927-42.0652976 0-76.16489269-34.100341-76.16489269-76.1648927z" stroke="#ffd8dd" stroke-width="5"/></g></svg>

<?xml version="1.0" encoding="UTF-8"?>
<svg width="159px" height="158px" viewBox="0 0 159 158" version="1.1" xmlns="http://www.w3.org/2000/svg" xmlns:xlink="http://www.w3.org/1999/xlink">
    <!-- Generator: Sketch 61.1 (89650) - https://sketch.com -->
    <title>Group 27</title>
    <desc>Created with Sketch.</desc>
    <defs>
        <path d="M0.0750145631,76.5319369 C0.0750145631,118.626248 34.1984709,152.750447 76.2927816,152.750447 L76.2927816,152.750447 C118.38635,152.750447 152.509806,118.626248 152.509806,76.5319369 L152.509806,76.5319369 C152.509806,34.4383689 118.38635,0.314912621 76.2927816,0.314912621 L76.2927816,0.314912621 C34.1984709,0.314912621 0.0750145631,34.4383689 0.0750145631,76.5319369 L0.0750145631,76.5319369 Z" id="path-1"></path>
    </defs>
    <g id="Page-1" stroke="none" stroke-width="1" fill="none" fill-rule="evenodd">
        <g id="ORGANISER-UNE-COLLECTE" transform="translate(-1031.000000, -1821.000000)">
            <g id="Group-27" transform="translate(1034.000000, 1823.000000)">
                <path d="M154,76.4996273 C154,118.750018 119.750018,153 77.5003727,153 C35.2499817,153 1,118.750018 1,76.4996273 C1,34.2499817 35.2499817,0 77.5003727,0 C119.750018,0 154,34.2499817 154,76.4996273" id="Fill-1" fill="#FFFFFF"></path>
                <g id="Group-5" transform="translate(1.000000, 0.000000)">
                    <mask id="mask-2" fill="white">
                        <use xlink:href="#path-1"></use>
                    </mask>
                    <g id="Clip-4"></g>
                    <polygon id="Fill-3" fill="#9E223E" mask="url(#mask-2)" points="159.686249 112.683757 -2.9705767 112.683757 18.1761029 164.314573 79.5981757 168.597087 137.831016 155.865408 157.639317 132.459379"></polygon>
                </g>
                <g id="Group-26">
                    <path d="M92.9234678,96.7352576 C92.9234678,98.5331941 91.507658,99.9900527 89.7604727,99.9900527 L29.6023654,99.9900527 C27.85518,99.9900527 26.4393702,98.5331941 26.4393702,96.7352576 L26.4393702,49.4515405 C26.4393702,47.6528576 27.85518,46.195999 29.6023654,46.195999 L89.7604727,46.195999 C91.507658,46.195999 92.9234678,47.6528576 92.9234678,49.4515405 L92.9234678,96.7352576 Z" id="Fill-6" fill="#E8364B"></path>
                    <path d="M122.682416,81.5802717 L115.754874,66.4258083 C114.638347,64.3972522 113.24642,63.1702668 111.499981,63.1702668 L96.0865376,63.1702668 C94.3393522,63.1702668 92.9235424,64.6278717 92.9235424,66.4258083 L92.9235424,96.7354815 C92.9235424,98.533418 94.3393522,99.9902766 96.0865376,99.9902766 L110.031181,99.9902766 L114.774928,99.9902766 L124.263913,99.9902766 C126.011099,99.9902766 127.426162,98.533418 127.426162,96.7354815 L127.426162,86.65614 C127.426162,82.4699107 124.429601,81.5802717 122.682416,81.5802717" id="Fill-8" fill="#FFA2AB"></path>
                    <path d="M117.40914,81.5802717 L112.81093,71.5225741 C112.045184,70.129901 111.088374,69.2880278 109.88975,69.2880278 L99.3081205,69.2880278 C98.1094961,69.2880278 97.1370132,70.2881254 97.1370132,71.5225741 L97.1370132,81.5802717 L117.40914,81.5802717 Z" id="Fill-10" fill="#FFFFFF"></path>
                    <path d="M129.911852,101.371456 C129.911852,101.633422 129.707355,101.84389 129.453599,101.84389 L25.3919546,101.84389 C25.1381985,101.84389 24.933701,101.633422 24.933701,101.371456 L24.933701,97.2068707 C24.933701,96.9463976 25.1381985,96.7351829 25.3919546,96.7351829 L129.453599,96.7351829 C129.707355,96.7351829 129.911852,96.9463976 129.911852,97.2068707 L129.911852,101.371456 Z" id="Fill-12" fill="#FFA2AB"></path>
                    <path d="M50.9140712,103.863416 C50.9140712,109.257225 46.6658956,113.629294 41.4250859,113.629294 C36.1850224,113.629294 31.9361005,109.257225 31.9361005,103.863416 C31.9361005,98.4696059 36.1850224,94.0967912 41.4250859,94.0967912 C46.6658956,94.0967912 50.9140712,98.4696059 50.9140712,103.863416" id="Fill-14" fill="#9E223E"></path>
                    <path d="M45.7173702,103.863416 C45.7173702,106.303206 43.795541,108.281757 41.4251605,108.281757 C39.05478,108.281757 37.1329507,106.303206 37.1329507,103.863416 C37.1329507,101.422879 39.05478,99.4450741 41.4251605,99.4450741 C43.795541,99.4450741 45.7173702,101.422879 45.7173702,103.863416" id="Fill-16" fill="#FFFFFF"></path>
                    <path d="M120.86903,103.863416 C120.86903,109.257225 116.620108,113.629294 111.380044,113.629294 C106.139981,113.629294 101.891059,109.257225 101.891059,103.863416 C101.891059,98.4696059 106.139981,94.0967912 111.380044,94.0967912 C116.620108,94.0967912 120.86903,98.4696059 120.86903,103.863416" id="Fill-18" fill="#9E223E"></path>
                    <path d="M115.672329,103.863416 C115.672329,106.303206 113.7505,108.281757 111.380119,108.281757 C109.008992,108.281757 107.087163,106.303206 107.087163,103.863416 C107.087163,101.422879 109.008992,99.4450741 111.380119,99.4450741 C113.7505,99.4450741 115.672329,101.422879 115.672329,103.863416" id="Fill-20" fill="#FFFFFF"></path>
                    <path d="M59.9372649,86.2310985 L59.6812698,86.3527522 L59.4252746,86.2310985 C57.128782,85.1339766 55.1935185,83.5800937 53.6650112,81.6157229 C53.6679966,81.5321327 53.6381429,81.4425717 53.5627624,81.3455473 C52.3492112,79.760318 51.4006112,77.9101376 50.7438307,75.8450107 C49.6295429,72.3446693 49.7385664,69.4540888 49.7437332,69.3324351 L49.763138,68.8711961 L50.2646795,68.8196985 C52.9470307,68.5450449 55.2517332,67.544201 56.7130698,66.7538254 C58.2766551,65.9074741 59.2551088,65.0991863 59.2976502,65.0641083 L59.6820161,64.7394498 L60.0678746,65.0663473 C60.1708698,65.1514302 61.1187234,65.9253863 62.6494698,66.7538254 C64.11006,67.544201 66.4140161,68.5450449 69.09786,68.8196985 L69.5994015,68.8711961 L69.6195527,69.3324351 C69.6240307,69.4540888 69.7329966,72.3454156 68.6194551,75.8450107 C67.9626746,77.9101376 67.0133283,79.7610644 65.7990307,81.3455473 C65.7236502,81.4440644 65.6923039,81.5358644 65.6923039,81.62244 C64.1652893,83.5838254 62.2307722,85.1347229 59.9372649,86.2310985 M72.5944698,76.5107473 C72.5944698,73.3223766 72.31086,70.425079 71.7443868,67.8793083 C70.1009429,60.4950059 66.0766698,56.066962 59.6812698,56.066962 C53.3590112,56.066962 49.3526502,60.3949961 47.6748746,67.6292839 C47.070338,70.234762 46.7673234,73.2171424 46.7673234,76.5107473 C46.7673234,77.9586498 46.8464356,79.3737132 46.9957039,80.7454888 C47.0166015,80.7410107 47.03526,80.7342937 47.0554112,80.7290693 C47.0546649,80.7432498 47.0516795,80.7574302 47.0516795,80.7723571 C47.0516795,82.3844546 52.1887478,82.6874693 53.4082698,81.956801 C54.9643917,83.9316205 56.9257771,85.4974449 59.246899,86.605762 L59.6812698,86.8124985 L60.1163868,86.605762 C62.4278063,85.5011766 64.3817283,83.9443083 65.9348649,81.9814302 C67.0931868,82.7516546 72.0063527,82.5889522 72.3257868,81.0932839 C72.3481771,80.9873034 72.3631039,80.8805766 72.3631039,80.7723571 L72.3631039,80.7716107 C72.5153576,79.3916254 72.5944698,77.9676059 72.5944698,76.5107473" id="Fill-22" fill="#FFFFFF"></path>
                    <path d="M0.321747805,76.7961483 C0.321747805,34.7315971 34.4213429,0.630509268 76.4866405,0.630509268 C118.551192,0.630509268 152.65228,34.7315971 152.65228,76.7961483 C152.65228,118.8607 118.551192,152.961041 76.4866405,152.961041 C34.4213429,152.961041 0.321747805,118.8607 0.321747805,76.7961483 Z" id="Stroke-24" stroke="#FFD8DD" stroke-width="5"></path>
                </g>
            </g>
        </g>
    </g>
</svg>
